X:1
T: Pay as you go
C:
R:Strathspey
Q: 128
K:Am
M:4/4
L:1/16
|:EA3 A3B cBA^G A4|EA3 A3c B3G d3B|EA3 A3B cBA^G A3^f|gb3 eg3 dg3 BG3|
EA3 A3B cBA^G A4|EA3 A3c B3G d3B|EA3 A3B cBA^G A3^f|gb3 eg3 dg3 BG3|
aA3 c3B A3E A4|c3B A3e cA3 eA3|aA3 c3B A3E A4|gb3 eg3 dg3 BG3|
aA3 c3B A3E A4|c3B A3e cA3 eA3|gb3 eg3 dg3 BG3|e3g d3g BG3 dB3:|
